img/group3.svg

<svg width="45" height="42" viewBox="0 0 45 42" fill="none" xmlns="http://www.w3.org/2000/svg">
<path d="M7.40628 41.1014C7.42219 41.1018 7.43786 41.1049 7.45238 41.1106C7.46689 41.1163 7.47995 41.1245 7.4908 41.1346L7.70892 41.3431C7.53961 41.5118 7.33035 41.6468 7.09546 41.7388C6.82039 41.8391 6.52394 41.8875 6.22572 41.8809C5.94548 41.8859 5.66705 41.8408 5.40777 41.7482C5.17389 41.6632 4.96376 41.5356 4.79159 41.3739C4.61588 41.2062 4.48054 41.0096 4.39353 40.7958C4.29824 40.5574 4.25119 40.3065 4.25448 40.0542C4.25061 39.8003 4.30147 39.548 4.40443 39.3103C4.49968 39.0951 4.64335 38.8986 4.82704 38.7322C5.01321 38.5691 5.23592 38.4408 5.48139 38.3555C5.74992 38.265 6.03588 38.22 6.32387 38.2228C6.59138 38.2172 6.85747 38.2582 7.10637 38.3436C7.32231 38.425 7.52058 38.538 7.69256 38.6777L7.50988 38.9004C7.49726 38.9161 7.48158 38.9297 7.46353 38.9407C7.44198 38.9535 7.41593 38.9594 7.38992 38.9573C7.36162 38.9556 7.33434 38.9474 7.31085 38.9336L7.2127 38.8743L7.07637 38.7985C7.01753 38.7704 6.95649 38.7458 6.8937 38.7251C6.81283 38.6999 6.72989 38.6801 6.64559 38.6659C6.5386 38.6487 6.42992 38.6408 6.32114 38.6422C6.11376 38.6399 5.90796 38.6737 5.71587 38.7417C5.53672 38.8046 5.37501 38.8999 5.24146 39.0212C5.10551 39.1503 5.00074 39.3018 4.93337 39.4667C4.85658 39.6553 4.81874 39.8542 4.82158 40.0542C4.81831 40.2574 4.85615 40.4595 4.93337 40.6513C4.9999 40.8147 5.10272 40.9653 5.23601 41.0943C5.36088 41.2146 5.51567 41.3086 5.6886 41.3692C5.86657 41.4333 6.0576 41.4655 6.25025 41.4639C6.36154 41.4654 6.47278 41.4591 6.58288 41.445C6.76267 41.4259 6.93513 41.3716 7.08728 41.2862C7.16359 41.2425 7.23563 41.1934 7.30267 41.1393C7.3307 41.1161 7.36756 41.1026 7.40628 41.1014Z" fill="#AFB1B8"/>
<path d="M13.7044 40.0538C13.7078 40.3052 13.6579 40.5549 13.5572 40.7906C13.4684 41.0043 13.3284 41.1993 13.1465 41.3626C12.9646 41.526 12.745 41.654 12.5021 41.7382C11.9683 41.9151 11.3782 41.9151 10.8444 41.7382C10.603 41.6527 10.3848 41.5244 10.2037 41.3615C10.0219 41.1952 9.88095 40.9986 9.78927 40.7835C9.59287 40.3063 9.59287 39.7847 9.78927 39.3076C9.88228 39.0923 10.0231 38.8951 10.2037 38.7271C10.3864 38.5694 10.6045 38.446 10.8444 38.3647C11.3775 38.1846 11.969 38.1846 12.5021 38.3647C12.7443 38.4502 12.9634 38.5784 13.1455 38.7414C13.325 38.906 13.465 39.1001 13.5572 39.3123C13.6582 39.5495 13.7081 39.8009 13.7044 40.0538ZM13.1319 40.0538C13.1362 39.8527 13.1011 39.6525 13.0283 39.4615C12.9672 39.298 12.8679 39.1472 12.7366 39.0185C12.6087 38.8968 12.4513 38.8013 12.2758 38.739C11.8879 38.6095 11.4586 38.6095 11.0707 38.739C10.8952 38.8013 10.7378 38.8968 10.6099 39.0185C10.4768 39.1464 10.3764 39.2974 10.3155 39.4615C10.1768 39.8472 10.1768 40.2604 10.3155 40.6461C10.377 40.81 10.4773 40.9609 10.6099 41.0891C10.7379 41.2101 10.8953 41.3048 11.0707 41.3663C11.4593 41.4925 11.8872 41.4925 12.2758 41.3663C12.4512 41.3048 12.6086 41.2101 12.7366 41.0891C12.8673 40.9601 12.9665 40.8094 13.0283 40.6461C13.1015 40.4552 13.1365 40.2549 13.1319 40.0538Z" fill="#AFB1B8"/>
<path d="M18.0013 40.6747L18.0586 40.8074C18.0804 40.76 18.0995 40.7173 18.1213 40.6747C18.1421 40.6302 18.1657 40.5867 18.1922 40.5444L19.5854 38.3438C19.6127 38.3059 19.6372 38.2823 19.6645 38.2751C19.7015 38.2653 19.7403 38.2613 19.779 38.2633H20.1907V41.8425H19.7026V39.2108C19.7026 39.1776 19.7026 39.1397 19.7026 39.0995C19.7 39.0585 19.7 39.0173 19.7026 38.9763L18.3012 41.2077C18.2834 41.2411 18.255 41.2694 18.2192 41.2891C18.1834 41.3089 18.1418 41.3192 18.0995 41.319H18.0204C17.9779 41.3195 17.9362 41.3093 17.9004 41.2895C17.8646 41.2697 17.8362 41.2413 17.8186 41.2077L16.3763 38.9621C16.3763 39.0047 16.3763 39.0474 16.3763 39.09C16.3763 39.1326 16.3763 39.1705 16.3763 39.2037V41.8354H15.9047V38.2633H16.3164C16.355 38.2613 16.3938 38.2653 16.4309 38.2751C16.4647 38.2897 16.4916 38.314 16.5072 38.3438L17.9304 40.5468C17.9584 40.5875 17.9821 40.6303 18.0013 40.6747Z" fill="#AFB1B8"/>
<path d="M23.2444 40.4969V41.8376H22.6991V38.2632H23.9151C24.1446 38.2594 24.3735 38.2857 24.594 38.3413C24.7705 38.3848 24.9341 38.4607 25.0739 38.564C25.195 38.6608 25.2883 38.7808 25.3465 38.9146C25.4109 39.0604 25.4423 39.2156 25.4392 39.3717C25.4416 39.5285 25.4073 39.684 25.3383 39.8289C25.2728 39.966 25.1721 40.0884 25.0439 40.1866C24.904 40.2941 24.7395 40.3749 24.5613 40.4234C24.349 40.4824 24.127 40.5104 23.9042 40.5063L23.2444 40.4969ZM23.2444 40.1131H23.9042C24.0475 40.1148 24.1902 40.0964 24.3268 40.0587C24.4395 40.0257 24.5433 39.9733 24.6322 39.9047C24.7141 39.8391 24.7775 39.7581 24.8176 39.6678C24.8622 39.5723 24.8844 39.4701 24.883 39.367C24.8893 39.2676 24.8707 39.1683 24.8283 39.0758C24.7859 38.9834 24.7208 38.9 24.6376 38.8317C24.4293 38.6904 24.1677 38.6219 23.9042 38.6398H23.2444V40.1131Z" fill="#AFB1B8"/>
<path d="M30.5731 41.8424H30.1423C30.0991 41.8438 30.0566 41.8321 30.0223 41.8092C29.9914 41.7869 29.9671 41.7585 29.9514 41.7263L29.5806 40.8616H27.7185L27.334 41.7263C27.3199 41.7579 27.2964 41.7857 27.2659 41.8069C27.2312 41.8311 27.1877 41.8437 27.1432 41.8424H26.7124L28.3483 38.2628H28.9154L30.5731 41.8424ZM27.8739 40.5134H29.4116L28.7627 39.0564C28.7131 38.9468 28.6721 38.8344 28.64 38.72L28.5773 38.9072C28.5582 38.964 28.5364 39.0162 28.5173 39.0588L27.8739 40.5134Z" fill="#AFB1B8"/>
<path d="M32.9288 38.2795C32.9614 38.295 32.9894 38.3169 33.0106 38.3434L35.3962 41.0417C35.3962 40.9991 35.3962 40.9564 35.3962 40.9161C35.3962 40.8759 35.3962 40.8356 35.3962 40.7977V38.2629H35.8843V41.8424H35.6116C35.5729 41.8434 35.5345 41.8361 35.4998 41.8211C35.4662 41.804 35.4365 41.7815 35.4126 41.7548L33.0297 39.0589C33.0323 39.0999 33.0323 39.141 33.0297 39.1821C33.0297 39.2223 33.0297 39.2579 33.0297 39.291V41.8424H32.5416V38.2629H32.8306C32.8644 38.2621 32.8979 38.2677 32.9288 38.2795Z" fill="#AFB1B8"/>
<path d="M39.9031 40.4188V41.8402H39.3578V40.4188L37.8501 38.2631H38.3381C38.3802 38.2609 38.4218 38.2718 38.4554 38.2938C38.4851 38.3168 38.51 38.3441 38.529 38.3744L39.4724 39.765C39.5105 39.8242 39.5432 39.8787 39.5705 39.9308C39.5978 39.9829 39.6196 40.0327 39.6387 40.0824L39.7096 39.9284C39.736 39.8721 39.767 39.8175 39.8023 39.765L40.732 38.3649C40.7516 38.337 40.7754 38.3115 40.8029 38.2891C40.8352 38.2646 40.8772 38.2518 40.9201 38.2536H41.4136L39.9031 40.4188Z" fill="#AFB1B8"/>
<path d="M17.7314 32.2561C17.9686 32.2822 18.2086 32.3035 18.4512 32.3225C22.1301 30.8926 25.2422 28.5523 27.3987 25.5942C29.5552 22.636 30.6603 19.1912 30.5759 15.6904L26.5216 12.1678C27.346 15.8951 26.9604 19.7482 25.408 23.2959C23.8555 26.8437 21.1976 29.9461 17.7314 32.2561Z" fill="#AFB1B8"/>
<path d="M16.2837 32.0923L16.3928 32.1112C20.0966 29.8094 22.9205 26.5951 24.4993 22.8839C26.078 19.1727 26.3389 15.1353 25.2483 11.2939L19.4737 6.27673C21.8094 10.4008 22.7495 15.0162 22.1848 19.5862C21.6201 24.1562 19.5737 28.493 16.2837 32.0923Z" fill="#AFB1B8"/>
<path d="M35.868 19.8265C34.8869 23.6731 32.5042 27.1423 29.0736 29.7189C28.0717 30.4755 26.991 31.1496 25.8455 31.7324C28.6389 31.019 31.2065 29.7578 33.3503 28.046C35.494 26.3341 37.1567 24.2174 38.21 21.859L35.868 19.8265Z" fill="#AFB1B8"/>
<path d="M34.949 19.2601L31.6146 16.3629C31.5508 19.666 30.47 22.894 28.4845 25.7114C26.499 28.5287 23.6813 30.8327 20.3242 32.3837H20.3406C21.0887 32.3835 21.8362 32.3447 22.579 32.2676C25.7164 31.155 28.488 29.3849 30.6464 27.1152C32.8049 24.8455 34.283 22.1469 34.949 19.2601Z" fill="#AFB1B8"/>
<path d="M16.7663 4.16091L12.7883 0.699951C9.23222 1.89391 6.1738 3.99283 4.01337 6.72203C1.85294 9.45122 0.69115 12.6835 0.680054 15.9959H0.680054C0.693382 19.656 2.11126 23.2077 4.70929 26.0888C7.30731 28.9699 10.9371 31.016 15.0241 31.903C18.6725 28.041 20.8086 23.2687 21.1219 18.2798C21.4352 13.2908 19.9094 8.34495 16.7663 4.16091Z" fill="#AFB1B8"/>
<path d="M44.1401 18.7273C44.1257 14.3848 42.1339 10.2238 38.5997 7.15318C35.0656 4.08257 30.2764 2.35199 25.2784 2.33949C22.9688 2.33741 20.6789 2.70769 18.5249 3.43153L42.8805 24.5926C43.7144 22.7221 44.1415 20.7333 44.1401 18.7273Z" fill="#AFB1B8"/>
</svg>

<svg width="45" height="42" fill="none" xmlns="http://www.w3.org/2000/svg"><path d="M7.406 41.101c.016 0 .032.004.046.01a.122.122 0 0 1 .039.024l.218.208c-.17.169-.379.304-.614.396a2.39 2.39 0 0 1-.87.142c-.28.005-.558-.04-.817-.133a1.793 1.793 0 0 1-.616-.374 1.674 1.674 0 0 1-.398-.578 1.927 1.927 0 0 1-.14-.742 1.724 1.724 0 0 1 .573-1.322c.186-.163.409-.291.654-.377.269-.09.555-.135.843-.132a2.27 2.27 0 0 1 .782.12c.216.082.415.195.587.335l-.183.222a.178.178 0 0 1-.046.04.125.125 0 0 1-.074.017.178.178 0 0 1-.08-.023l-.097-.06-.137-.076a1.55 1.55 0 0 0-.43-.132 1.892 1.892 0 0 0-.325-.024 1.759 1.759 0 0 0-.605.1 1.39 1.39 0 0 0-.475.28c-.135.128-.24.28-.308.445a1.499 1.499 0 0 0-.111.587 1.53 1.53 0 0 0 .111.597c.067.164.17.314.303.443.125.12.28.215.453.275.178.064.369.096.561.095.112.001.223-.005.333-.019a1.316 1.316 0 0 0 .72-.306.171.171 0 0 1 .103-.038ZM13.704 40.054a1.81 1.81 0 0 1-.147.737 1.593 1.593 0 0 1-.41.572 1.889 1.889 0 0 1-.645.375 2.655 2.655 0 0 1-1.658 0 1.91 1.91 0 0 1-.64-.377 1.677 1.677 0 0 1-.415-.578 1.922 1.922 0 0 1 0-1.475c.093-.216.234-.413.415-.58.182-.159.4-.282.64-.363a2.61 2.61 0 0 1 1.658 0c.242.085.461.213.643.376.18.165.32.36.412.571.101.238.151.489.147.742Zm-.572 0a1.566 1.566 0 0 0-.104-.593 1.22 1.22 0 0 0-.752-.722 1.918 1.918 0 0 0-1.205 0 1.297 1.297 0 0 0-.461.28 1.191 1.191 0 0 0-.294.443 1.738 1.738 0 0 0 0 1.184 1.209 1.209 0 0 0 .755.72c.388.127.816.127 1.205 0 .175-.061.333-.156.46-.277.131-.129.23-.28.292-.443.073-.19.108-.391.104-.592ZM18.001 40.675l.058.132c.021-.047.04-.09.062-.132.021-.045.045-.088.071-.13l1.393-2.201c.028-.038.052-.062.08-.069a.373.373 0 0 1 .114-.012h.412v3.58h-.488V39.1a.974.974 0 0 1 0-.124L18.3 41.208a.203.203 0 0 1-.082.081.246.246 0 0 1-.12.03h-.079a.243.243 0 0 1-.12-.03.201.201 0 0 1-.081-.081l-1.443-2.246V41.835h-.471v-3.572h.411a.374.374 0 0 1 .115.012c.034.015.06.039.076.069l1.423 2.203c.028.04.052.083.071.128ZM23.244 40.497v1.34H22.7v-3.574h1.216c.23-.004.459.023.679.078.176.044.34.12.48.223a.922.922 0 0 1 .272.35c.065.146.096.302.093.458a.992.992 0 0 1-.395.815c-.14.107-.304.188-.483.236a2.3 2.3 0 0 1-.657.083l-.66-.01Zm0-.384h.66c.143.002.286-.017.423-.054a.925.925 0 0 0 .305-.154.687.687 0 0 0 .25-.538.605.605 0 0 0-.054-.291.69.69 0 0 0-.19-.244 1.172 1.172 0 0 0-.734-.192h-.66v1.473ZM30.573 41.842h-.43a.205.205 0 0 1-.12-.033.224.224 0 0 1-.072-.083l-.37-.864h-1.863l-.384.864a.196.196 0 0 1-.068.08.205.205 0 0 1-.123.036h-.43l1.635-3.58h.567l1.658 3.58Zm-2.7-1.329h1.539l-.65-1.457c-.049-.11-.09-.222-.122-.336l-.063.187a1.69 1.69 0 0 1-.06.152l-.643 1.454ZM32.929 38.28c.032.015.06.037.082.063l2.385 2.699v-2.779h.488v3.58h-.272a.265.265 0 0 1-.112-.022.298.298 0 0 1-.087-.066l-2.383-2.696a.974.974 0 0 1 0 .123v2.66h-.488v-3.58h.289c.033 0 .067.006.098.017ZM39.903 40.419v1.421h-.545V40.42l-1.508-2.156h.488a.196.196 0 0 1 .117.03c.03.024.055.051.074.081l.943 1.391a1.419 1.419 0 0 1 .166.317l.072-.154c.026-.056.057-.11.092-.163l.93-1.4a.379.379 0 0 1 .07-.076.182.182 0 0 1 .118-.035h.494l-1.51 2.165ZM17.731 32.256c.238.026.478.047.72.066 3.68-1.43 6.791-3.77 8.948-6.728 2.156-2.958 3.261-6.403 3.177-9.904l-4.054-3.522c.824 3.727.438 7.58-1.114 11.128-1.553 3.548-4.21 6.65-7.677 8.96Z" fill="#AFB1B8"/><path d="m16.284 32.092.109.02c3.704-2.303 6.527-5.517 8.106-9.228 1.579-3.711 1.84-7.749.75-11.59l-5.775-5.017c2.335 4.124 3.276 8.74 2.71 13.31-.564 4.57-2.61 8.906-5.9 12.505ZM35.868 19.826c-.981 3.847-3.364 7.316-6.794 9.893a21.633 21.633 0 0 1-3.229 2.013c2.794-.713 5.361-1.974 7.505-3.686s3.807-3.829 4.86-6.187l-2.342-2.033Z" fill="#AFB1B8"/><path d="m34.949 19.26-3.334-2.897c-.064 3.303-1.145 6.531-3.13 9.348-1.986 2.818-4.804 5.122-8.16 6.673h.016c.748 0 1.495-.04 2.238-.116 3.137-1.113 5.909-2.883 8.067-5.153 2.159-2.27 3.637-4.968 4.303-7.855ZM16.766 4.16 12.788.7C9.232 1.894 6.174 3.993 4.013 6.722 1.853 9.452.691 12.684.68 15.996c.013 3.66 1.431 7.212 4.03 10.093 2.597 2.88 6.227 4.927 10.314 5.814 3.649-3.862 5.785-8.634 6.098-13.623.313-4.99-1.213-9.935-4.356-14.12ZM44.14 18.727c-.014-4.342-2.006-8.503-5.54-11.574-3.534-3.07-8.324-4.801-13.322-4.814a21.18 21.18 0 0 0-6.753 1.093l24.355 21.16a14.352 14.352 0 0 0 1.26-5.865Z" fill="#AFB1B8"/></svg>
